!!!!SEGMENT: pl-sa--549-a-ix-29--012_anonim--marsz-x-j-poniatowskiego.krn
!!!cenid: 18xx:468
!!!COM: Anonim
!!!COM-rismid: pe30004985
!!!CDT:
!!!CNT:
!!!OTL: Marsz X J Poniatowskiego
!!!PDT:
!!!AGN: Secular; March
!!!SMS-siglum: PL-SA
!!!SMS-shelfmark: 549/A IX 29
!!!SMS-shelfwork: 012 W
!!!SMS-variant:
!!!SMS-altvar:
!!!NIFC-rismid: 1001068389
!!!URL-scan: http://bc.bdsandomierz.pl/dlibra/publication/1441/edition/1409/content
!!!ONB-nifc: Str. 10 (s. 6) – str. 11 (s. 3)
!!!key: B-
**kern	**kern
*group1	*group1
*part1	*part1
*staff2	*staff1
*I"[Piano]	*I"[Piano]
*Ipiano	*Ipiano
*ICklav	*ICklav
*clefF4	*clefG2
*k[b-e-]	*k[b-e-]
*B-:	*B-:
*M2/4	*M2/4
!LO:N:vis=4	!
!LO:TX:t=P:problem:brak chorągiewki	!
8d\	8ff\
=1	=1
16en\LL	16een\LL
16f\	16ff\
16g\	16gg\
16f\JJ	16ff\JJ
16e-X\LL	16ee-X\LL
16d\	16dd\
16e-\	16ee-\
16c\JJ	16cc\JJ
=2	=2
8BB-/L 8F/ 8B-/	8b-/L
8BB-/ 8F/ 8B-/	8d/ 8f/ 8b-/
8BB-/J 8F/ 8B-/	8d/J 8f/ 8b-/
!	!LO:TUP:b:problem:klamra łukowa
8r	24f/LL
.	24g/
.	24a/JJ
=3	=3
8BB-/ 8F/ 8B-/	16b-\LL
.	16a\
8r	16b-\
.	16cc\JJ
8BB-/ 8F/ 8B-/	16dd\LL
.	16b-\
8r	16ff\
.	16dd\JJ
=4	=4
8F\L 8A\ 8c\	8cc/L
8F\ 8A\ 8c\	8f/ 8a/ 8cc/
8F\J 8A\ 8c\	8f/J 8a/ 8cc/
8f\	8ff\
=5	=5
16en\LL	16een\LL
16f\	16ff\
16g\	16gg\
16f\JJ	16ff\JJ
16e-X\LL	16ee-X\LL
16d\	16dd\
16e-\	16ee-\
16c\JJ	16cc\JJ
=6	=6
8BB-\L 8F\ 8B-\	8b-\L
8BB-\J 8F\ 8B-\	8b-\J
4G\ 4d\	4g\ 4b-\ 4dd\
=7	=7
8E-\L 8G\ 8c\	16cc\LL
.	16dd\
8E-\J 8G\ 8c\	16ee-\
.	16cc\JJ
8F\L 8c\ 8e-\	16a\LL
.	16b-\
8F\J 8c\ 8e-\	16cc\
.	16a\JJ
=	=
8B-\L 8d\	8g/L
8G\J	8f/J 8dd/
8BB-/	8d/ 8b-/
=8:|!	=8:|!
*	*Xtuplet
8r	24dd\LL
!	!LO:N:acc=#
.	24een\
.	24ff#X\JJ
!!LO:PB:g=original
=9	=9
8qGG/	.
4G\	4g/ 4gg/
8qDD/	8qd/
4D\	4dd\
=10	=10
8BB-/L 8B-/	8bb-\L
8BB-/J 8B-/	16bb-\L
.	16aa\JJ
4GG/ 4G/	4gg\
=11	=11
8e-\L	8ee-X\L
16e-\L	16ee-\L
16d\JJ	16dd\JJ
8c\L	8cc\L
16c\L	16cc\L
16B-\JJ	16b-\JJ
=12	=12
8A\L	8a/L
16A\L	16a/L
16G\JJ	16g/JJ
4F\	4f/
=13	=13
!LO:TX:a:t=1	!LO:TX:a:t=1
2r	2r
=14	=14
.	32qqcc/LLL
.	32qqb-/
.	32qqa/JJJ
8BB-/	16b-\LL
.	16a\
8F\L 8B-\ 8d\	16b-\
.	16cc\JJ
.	32qqee-/LLL
.	32qqdd/
.	32qqcc/JJJ
8F\ 8B-\ 8d\	16dd\LL
.	16cc\
8F\J 8B-\ 8d\	16dd\
.	16ee-\JJ
=15	=15
*rep	*
8BB-/	16een\LL
.	16ff\
8F\L 8B-\ 8d\	16gg\
.	16ff\JJ
8F\ 8B-\ 8d\	16ee\LL
.	16dd\
8F\J 8B-\ 8d\	16cc\
.	16b-\JJ
*Xrep	*
=16	=16
!!mixed beam:problem
!LO:TX:t=P:problem:mixed beam	!
8EE-/L	16cc\LL
.	16dd\
8E-\J 8G\ 8c\	16ee-\
.	16cc\JJ
!!mixed beam:problem
!LO:TX:t=P:problem:mixed beam	!
8FF/L	16a\LL
.	16b-\
8F\J 8c\ 8e-\	16cc\
.	16a\JJ
=17	=17
4B-\ 4d\	16b-\LL
.	16bb-\
.	16aa\
.	16gg\JJ
4r	16ff\LL
.	16ee-\
.	16dd\
.	16cc\JJ
=18	=18
.	32qqcc/LLL
.	32qqb-/
8qBB-/	32qqa/JJJ
4G\ 4B-\ 4d\	16b-\LL
.	16a\
.	16b-\
.	16cc\JJ
!!LO:LB:g=original
.	32qqee-/LLL
.	32qqdd/
.	32qqcc/JJJ
8F\L 8B-\ 8d\	16dd\LL
.	16cc\
8F\J 8B-\ 8d\	16dd\
.	16ee-\JJ
=19	=19
*rep	*
8qBB-/	.
4G\ 4B-\ 4d\	16een\LL
.	16ff\
.	16gg\
.	16ff\JJ
8F\L 8B-\ 8d\	16ee-X\LL
.	16dd\
8F\J 8B-\ 8d\	16cc\
.	16b-\JJ
*Xrep	*
=20	=20
!!mixed beam:problem
!LO:TX:t=P:problem:mixed beam	!
8EE-/L	16cc\LL
.	16dd\
8E-\J 8G\ 8c\	16ee-\
.	16cc\JJ
!!mixed beam:problem
!LO:TX:t=P:problem:mixed beam	!
8FF/L	16a\LL
.	16b-\
8F\J 8c\ 8e-\	16cc\
.	16a\JJ
=21	=21
8B-\L 8d\	8b-\
8F\J	8f/ 8dd/
8BB-/	8d/ 8b-/
==	==
*-	*-
!!!system-decoration: [{g1}]
!!!ENC: Tomasz Grochalski
!!!END: 2020-06-16
!!!EED: Jędrzej Mróz
!!!EST: 2022-01-04
